X:1
T:Title
%%score { ( 1 3 ) | 2 }
L:1/8
M:4/4
K:Eb
V:1 treble nm="Grand Piano"
V:3 treble 
V:2 bass 
V:1
 z4 z2[Q:1/4=92] EF | GGG_G =G[GB][Gc]G | BAAc e2 dc | eBcG [FB][FA][FA][EG] | [DF]6 EF | %5
 GGG_G =G[GB][Gc]G | BAAc e2 de | [=Af][Ae]dc ddcc | [DB]6 (3Bcd | e4 B4 | B2 B2 z4 | %11
 [EG][DF][DF][EG] [FA][FA][GB][FA] | G6 z2 | e-[Ge-][Ge-][Ge] B-[GB-][GB]G | %14
 B-[GB]B-[GB] G2 [Ge][Ge] | [Fd][Ac][GB][FA] [EG][FA][DF]D |[M:3/4] E6 |] %17
V:2
 z4 z2 [E,G,][E,A,D] | [E,B,E][E,B,E][E,B,E][E,=A,E] [E,B,E][E,E][E,E][E,_DE] | %2
 [A,CE][A,CE][A,CE][A,EA] [A,CA]2 [A,B,A][K:bass][A,E] | %3
 [G,B,E][G,B,E][E,G,E][E,B,E] [D,B,][D,B,][E,B,][E,B,] | [B,,B,]6 [E,G,][E,A,D] | %5
 [E,B,E][E,B,E][E,B,E][E,=A,E] [E,B,E][E,E][E,E][E,_DE] | %6
 [A,CE][A,CE][A,CE][A,EA] [A,CA]2 [A,=B,A][A,CA] | %7
 [F,C][F,C][F,=A,F][F,A,F] [F,B,F][F,B,F][F,A,E][F,E] | [B,,F,]6 z2 | %9
 [E,B,][E,B,][E,B,][E,B,] [E,E][E,E][E,E][E,B,E] | [E,E][E,E][E,E][E,E] [E,B,E]2 [E,B,E][E,B,E] | %11
 [B,,B,][B,,B,][B,,B,][B,,B,] [B,,B,][B,,B,][B,,B,][B,,B,] | [E,B,E][E,G,][E,B,][E,A,] [E,G,]2 z2 | %13
 [E,B,][E,B,][E,B,][E,B,] [E,E][E,E][E,E][E,B,E] | [E,E][E,E][E,E][E,E] [E,B,E]2 [E,B,][E,B,] | %15
 [B,,B,][B,,B,][B,,B,][B,,B,] [B,,B,][B,,B,][B,,A,][B,,F,B,] |[M:3/4] [E,G,B,]6 |] %17
V:3
 x8 | x8 | x8 | x8 | x8 | x8 | x8 | x8 | x8 | GGGG GGGG | GGGG G2 GG | x8 | z B,DC .B,2 (3Bcd | %13
 .G2 z2 .G2 z2 | .G2 .G2 z4 | x8 |[M:3/4] x6 |] %17

